TV/Source/NVTV - Dark.svg

<svg height="257pt" viewBox="0 0 904 257" width="904pt" xmlns="http://www.w3.org/2000/svg"><path d="m0 0h65.01c27.23 43.27 54.39 86.59 81.56 129.9-.02-43.3 0-86.6-.01-129.9h76v257h-65.77c-27.23-43.23-54.32-86.55-81.54-129.8-.01 43.27 0 86.53 0 129.8h-75.25z" fill="#009eb5"/><path d="m229.42 0h81.7c14.67 54.97 29.05 110.01 43.77 164.96 14.93-54.9 29.14-110.01 43.87-164.96h82.07c-26.13 85.65-52.15 171.33-78.24 257h-94.89c-26.16-85.65-52.12-171.35-78.28-257z" fill="#009eb5"/><path d="m489.69 0h244.67c14.65 55.11 29.18 110.25 43.82 165.37 14.61-55.12 29.16-110.26 43.82-165.37h82v .19c-26.1 85.59-52.11 171.21-78.18 256.81h-94.88c-18.46-60.43-36.81-120.89-55.22-181.33-18.4-.1-36.81-.02-55.21-.04-.02 60.46-.01 120.91-.01 181.37h-75.62c-.01-60.46 0-120.91-.01-181.37-18.39-.02-36.79.02-55.18-.02 0-25.2 0-50.41 0-75.61z" fill="#3f4240"/></svg>

<?xml version="1.0" encoding="UTF-8" standalone="no"?>
<svg
   xmlns:dc="http://purl.org/dc/elements/1.1/"
   xmlns:cc="http://creativecommons.org/ns#"
   xmlns:rdf="http://www.w3.org/1999/02/22-rdf-syntax-ns#"
   xmlns:svg="http://www.w3.org/2000/svg"
   xmlns="http://www.w3.org/2000/svg"
   xmlns:sodipodi="http://sodipodi.sourceforge.net/DTD/sodipodi-0.dtd"
   xmlns:inkscape="http://www.inkscape.org/namespaces/inkscape"
   width="904pt"
   height="257pt"
   viewBox="0 0 904 257"
   version="1.1"
   id="svg2"
   inkscape:version="0.91 r13725"
   sodipodi:docname="NVTV - Dark.svg">
  <metadata
     id="metadata16">
    <rdf:RDF>
      <cc:Work
         rdf:about="">
        <dc:format>image/svg+xml</dc:format>
        <dc:type
           rdf:resource="http://purl.org/dc/dcmitype/StillImage" />
        <dc:title></dc:title>
      </cc:Work>
    </rdf:RDF>
  </metadata>
  <defs
     id="defs14" />
  <sodipodi:namedview
     pagecolor="#ffffff"
     bordercolor="#666666"
     borderopacity="1"
     objecttolerance="10"
     gridtolerance="10"
     guidetolerance="10"
     inkscape:pageopacity="0"
     inkscape:pageshadow="2"
     inkscape:window-width="1920"
     inkscape:window-height="1017"
     id="namedview12"
     showgrid="false"
     fit-margin-top="0"
     fit-margin-left="0"
     fit-margin-right="0"
     fit-margin-bottom="0"
     inkscape:zoom="1.019469"
     inkscape:cx="455.96791"
     inkscape:cy="110.0961"
     inkscape:window-x="-8"
     inkscape:window-y="-8"
     inkscape:window-maximized="1"
     inkscape:current-layer="svg2" />
  <g
     id="#009eb5ff">
    <path
       d="m 0,0 65.01,0 c 27.23,43.27 54.39,86.59 81.56,129.9 -0.02,-43.3 0,-86.6 -0.01,-129.9 l 76,0 c 0,85.67 0,171.33 0,257 l -65.77,0 c -27.23,-43.23 -54.32,-86.55 -81.54,-129.8 -0.01,43.27 0,86.53 0,129.8 L 0,257 0,0 Z"
       id="path5"
       inkscape:connector-curvature="0"
       style="opacity:1;fill:#009eb5" />
    <path
       d="m 229.42,0 81.7,0 c 14.67,54.97 29.05,110.01 43.77,164.96 C 369.82,110.06 384.03,54.95 398.76,0 l 82.07,0 C 454.7,85.65 428.68,171.33 402.59,257 l -94.89,0 C 281.54,171.35 255.58,85.65 229.42,0 Z"
       id="path7"
       inkscape:connector-curvature="0"
       style="opacity:1;fill:#009eb5" />
  </g>
  <g
     id="#dadadaff"
     style="fill:#3f4240;fill-opacity:1">
    <path
       d="m 489.69,0 244.67,0 c 14.65,55.11 29.18,110.25 43.82,165.37 C 792.79,110.25 807.34,55.11 822,0 l 82,0 0,0.19 C 877.9,85.78 851.89,171.4 825.82,257 l -94.88,0 C 712.48,196.57 694.13,136.11 675.72,75.67 657.32,75.57 638.91,75.65 620.51,75.63 620.49,136.09 620.5,196.54 620.5,257 l -75.62,0 c -0.01,-60.46 0,-120.91 -0.01,-181.37 -18.39,-0.02 -36.79,0.02 -55.18,-0.02 0,-25.2 0,-50.41 0,-75.61 z"
       id="path10"
       inkscape:connector-curvature="0"
       style="opacity:1;fill:#3f4240;fill-opacity:1" />
  </g>
</svg>
